X: 9
T:Old Molly Oxford
T:Step Back
M:2/2
L:1/8
O:Fieldtown
P:A(A2B2)3A2
K:D
P:A
d2cd e2f2|e2dc Bcd2|c2A2 B2G2|A2AG FGA2|
d2(3edc B2AG|F2A2 d4 |F2(3FED E2C2|D4 D4|]
P:B
AGFE D2EF|G2A2 B2c2|dcBA G2A2|Bcdf e2ce|
d2Bd c2A2|BGEF G2B2|AGFE D2EF|G4 G4|]
</abc>
